images/wpp.svg

<svg width="21" height="21" viewBox="0 0 21 21" fill="none" xmlns="http://www.w3.org/2000/svg">
<path d="M10.651 0.450947C5.19101 0.450947 0.741011 4.90095 0.741011 10.3609C0.741011 12.1109 1.20101 13.8109 2.06101 15.3109L0.661011 20.4509L5.91101 19.0709C7.36101 19.8609 8.99101 20.2809 10.651 20.2809C16.111 20.2809 20.561 15.8309 20.561 10.3709C20.561 7.72095 19.531 5.23095 17.661 3.36095C15.791 1.48095 13.301 0.450947 10.651 0.450947ZM10.661 2.12095C12.861 2.12095 14.921 2.98095 16.481 4.54095C18.031 6.10095 18.891 8.17095 18.891 10.3709C18.891 14.9109 15.191 18.6009 10.651 18.6009C9.17101 18.6009 7.72101 18.2109 6.46101 17.4509L6.16101 17.2809L3.04101 18.1009L3.87101 15.0609L3.67101 14.7409C2.85101 13.4509 2.41101 11.9209 2.41101 10.3609C2.42101 5.82095 6.11101 2.12095 10.661 2.12095ZM7.14101 5.78095C6.98101 5.78095 6.71101 5.84095 6.48101 6.09095C6.26101 6.34095 5.61101 6.95095 5.61101 8.16095C5.61101 9.38095 6.50101 10.5509 6.61101 10.7209C6.75101 10.8909 8.37101 13.3909 10.861 14.4509C11.451 14.7209 11.911 14.8709 12.271 14.9809C12.861 15.1709 13.401 15.1409 13.831 15.0809C14.311 15.0109 15.291 14.4809 15.501 13.9009C15.711 13.3209 15.711 12.8309 15.651 12.7209C15.581 12.6209 15.421 12.5609 15.171 12.4509C14.921 12.3109 13.701 11.7109 13.481 11.6309C13.251 11.5509 13.111 11.5109 12.921 11.7509C12.761 12.0009 12.281 12.5609 12.141 12.7209C11.991 12.8909 11.851 12.9109 11.611 12.7909C11.351 12.6609 10.551 12.4009 9.61101 11.5609C8.87101 10.9009 8.38101 10.0909 8.23101 9.84095C8.11101 9.60095 8.22101 9.45095 8.34101 9.34095C8.45101 9.23095 8.61101 9.05095 8.71101 8.90095C8.84101 8.76095 8.88101 8.65095 8.96101 8.49095C9.04101 8.32095 9.00101 8.18095 8.94101 8.06095C8.88101 7.95095 8.38101 6.71095 8.17101 6.22095C7.97101 5.74095 7.77101 5.80095 7.61101 5.79095C7.47101 5.79095 7.31101 5.78095 7.14101 5.78095Z" fill="white"/>
</svg>

<svg xmlns="http://www.w3.org/2000/svg" width="21" height="21" fill="none"><path fill="#fff" d="M10.651.45C5.191.45.741 4.9.741 10.36c0 1.75.46 3.45 1.32 4.95l-1.4 5.14 5.25-1.38c1.45.79 3.08 1.21 4.74 1.21 5.46 0 9.91-4.45 9.91-9.91 0-2.649-1.03-5.139-2.9-7.009a9.816 9.816 0 0 0-7.01-2.91Zm.01 1.671c2.2 0 4.26.86 5.82 2.42a8.225 8.225 0 0 1 2.41 5.83c0 4.54-3.7 8.23-8.24 8.23-1.48 0-2.93-.39-4.19-1.15l-.3-.17-3.12.82.83-3.04-.2-.32a8.188 8.188 0 0 1-1.26-4.38c.01-4.54 3.7-8.24 8.25-8.24Zm-3.52 3.66c-.16 0-.43.06-.66.31-.22.25-.87.86-.87 2.07 0 1.22.89 2.39 1 2.56.14.17 1.76 2.67 4.25 3.73.59.27 1.05.42 1.41.53.59.19 1.13.16 1.56.1.48-.07 1.46-.6 1.67-1.18.21-.58.21-1.07.15-1.18-.07-.1-.23-.16-.48-.27-.25-.14-1.47-.74-1.69-.82-.23-.08-.37-.12-.56.12-.16.25-.64.81-.78.97-.15.17-.29.19-.53.07-.26-.13-1.06-.39-2-1.23-.74-.66-1.23-1.47-1.38-1.72-.12-.24-.01-.39.11-.5.11-.11.27-.29.37-.44.13-.14.17-.25.25-.41.08-.17.04-.31-.02-.43-.06-.11-.56-1.35-.77-1.84-.2-.48-.4-.42-.56-.43-.14 0-.3-.01-.47-.01Z"/></svg>
